!!!COM: Claude Goudimel
!!!OMD: Psalm 36: Du malin le meschant vouloir
**kern	**kern	**kern	**kern
*part4	*part3	*part2	*part1
*staff4	*staff3	*staff2	*staff1
*I"bassus	*I"tenor	*I"contra	*I"superius
*clefF3	*clefC3	*clefC2	*clefG2
*k[b-]	*k[b-]	*k[b-]	*k[b-]
!!LO:TX:omd:t=
*M2/2	*M2/2	*M2/2	*M2/2
*met(c|)	*met(c|)	*met(c|)	*met(c|)
=1	=1	=1	=1
1F	1F	1F	1c
=2	=2	=2	=2
2D	2F	2A	2d
2C	2G	2c	2e
=3	=3	=3	=3
2F	2A	2c	2f
2F	2F	2A	2c
=4	=4	=4	=4
2D	2A	2F	2d
2G	2B-	2G	2d
=5	=5	=5	=5
1F	1c	1A	1f
=6	=6	=6	=6
1r	1r	1r	1r
=7	=7	=7	=7
1F	1c	1A	1f
=8	=8	=8	=8
2BB-	2B-	2d	2f
2F	2A	2c	2f
=9	=9	=9	=9
2C	2G	2c	2e
2D	2F	2A	2d
=10	=10	=10	=10
2D	2A	2F	2d
2G	2B-	2G	2d
=11	=11	=11	=11
1F	1c	1A	1f
=12	=12	=12	=12
1r	1r	1r	1r
=13	=13	=13	=13
1BB-	1d	1f	1b-
=14	=14	=14	=14
2F	2c	2f	2a
2G	2B-	2d	2g
=15	=15	=15	=15
2D	2A	2d	2f
2D	2F	2A	[2f
=16	=16	=16	=16
1C	1G	1c	2f]
.	.	.	2e
=17	=17	=17	=17
1F	1F	1c	1f
=18	=18	=18	=18
1r	1r	1r	1r
=19	=19	=19	=19
1F	1F	1F	1c
=20	=20	=20	=20
2D	2F	2A	2d
2C	2G	2c	2e
=21	=21	=21	=21
2F	2A	2c	2f
2F	2F	2A	2c
=22	=22	=22	=22
2D	2A	2F	2d
2G	2B-	2G	2d
=23	=23	=23	=23
1F	1c	1A	1f
=24	=24	=24	=24
1r	1r	1r	1r
=25	=25	=25	=25
1F	1c	1A	1f
=26	=26	=26	=26
2BB-	2B-	2d	2f
2F	2A	2c	2f
=27	=27	=27	=27
2C	2G	2c	2e
2D	2F	2A	2d
=28	=28	=28	=28
2D	2A	2F	2d
2G	2B-	2G	2d
=29	=29	=29	=29
1F	1c	1A	1f
=30	=30	=30	=30
1r	1r	1r	1r
=31	=31	=31	=31
1BB-	1d	1f	1b-
=32	=32	=32	=32
2F	2c	2f	2a
2G	2B-	2d	2g
=33	=33	=33	=33
2D	2A	2d	2f
2D	2F	2A	[2f
=34	=34	=34	=34
1C	1G	1c	2f]
.	.	.	2e
=35	=35	=35	=35
1F	1F	1c	1f
=36	=36	=36	=36
1r	1r	1r	1r
=37	=37	=37	=37
1F	1f	1c	1a
=38	=38	=38	=38
2D	2f	2d	2a
2F	2f	2c	2a
=39	=39	=39	=39
2C	2e	2c	2g
2C	2c	2g	2cc
=40	=40	=40	=40
2G	2d	2g	2cc
2G	2d	2g	2bn
=41	=41	=41	=41
1C	1c	1g	1cc
=42	=42	=42	=42
1r	1r	1r	1r
=43	=43	=43	=43
1F	1f	1c	1a
=44	=44	=44	=44
2D	2f	2d	2a
2F	2f	2c	2a
=45	=45	=45	=45
2C	2e	2c	2g
2C	2c	2g	2cc
=46	=46	=46	=46
2G	2d	2g	2cc
2G	2d	2g	2bn
=47	=47	=47	=47
1C	1c	1g	1cc
=48	=48	=48	=48
1r	1r	1r	1r
=49	=49	=49	=49
1F	1A	1c	1f
=50	=50	=50	=50
2BB-	2B-	2d	2f
2BB-	2d	2f	2b-
=51	=51	=51	=51
2F	2c	2f	2a
2F	2A	2f	2a
=52	=52	=52	=52
1G	1B-	1d	1g
=53	=53	=53	=53
1D	1A	1d	1f#X
=54	=54	=54	=54
1r	1r	1r	1r
=55	=55	=55	=55
1G	1G	1d	1g
=56	=56	=56	=56
2D	2A	2d	2f
2G	2B-	2d	2g
=57	=57	=57	=57
2F	2c	2f	2a
2G	2B-	2d	2g
=58	=58	=58	=58
2D	2A	2d	2g
2D	2A	2d	2f#X
=59	=59	=59	=59
1G	1G	1d	1g
=60	=60	=60	=60
1r	1r	1r	1r
=61	=61	=61	=61
1F	1c	1A	1f
=62	=62	=62	=62
2D	2d	2A	2f
2C	2e	2c	2g
=63	=63	=63	=63
2F	2f	2c	2a
2C	2e	2c	2g
=64	=64	=64	=64
2G	2d	2c	2g
2G	2d	2Bn	2g
=65	=65	=65	=65
1C	1c	1c	1e
=66	=66	=66	=66
1r	1r	1r	1r
=67	=67	=67	=67
1F	1F	1A	1c
=68	=68	=68	=68
2E	2G	2G	2c
2F	2A	2c	2f
=69	=69	=69	=69
2BB-	2B-	2d	2f
2F	2A	2c	[2f
=70	=70	=70	=70
1C	1G	1c	2f]
.	.	.	2e
=71	=71	=71	=71
1F;	1F;	1c;	1f;
==	==	==	==
*-	*-	*-	*-
!!!software: music21 v.9.7.1
!!!software: music21 v.9.1.0
!!!RDF**kern: > = above
!!!RDF**kern: < = below
